icons/file/icon_account-rub_xxl_black.svg

<svg width="48" height="48" viewBox="0 0 48 48" xmlns="http://www.w3.org/2000/svg"><g fill="none" fill-rule="evenodd"><path d="M0 0h48v48H0z"/><path d="M37.5 46h-28C7.6 46 6 44.4 6 42.5v-37C6 3.6 7.6 2 9.5 2h21.2L41 12.3v30.2c0 1.9-1.6 3.5-3.5 3.5zM9.5 3C8.1 3 7 4.1 7 5.5v37C7 43.9 8.1 45 9.5 45h28c1.4 0 2.5-1.1 2.5-2.5V12.7L30.3 3H9.5z" fill="#0B1F35"/><path d="M18 36h3v-3h7v-3h-7v-2h4.5c4.3 0 6.8-3 6.8-7s-2.4-7-6.7-7H18v11h-2.9v3H18v2h-2.9v3H18v3zm3-19h3.6c3 0 4.4 1.6 4.4 4 0 2.5-1.4 4-4.4 4H21v-8z" fill="#0B1F35" opacity=".3"/></g></svg>

<?xml version="1.0" encoding="UTF-8"?>
<svg width="48px" height="48px" viewBox="0 0 48 48" version="1.1" xmlns="http://www.w3.org/2000/svg" xmlns:xlink="http://www.w3.org/1999/xlink">
    <!-- Generator: Sketch 48.2 (47327) - http://www.bohemiancoding.com/sketch -->
    <title>icon_account-rub_xxl_white</title>
    <desc>Created with Sketch.</desc>
    <defs></defs>
    <g id="mobile" stroke="none" stroke-width="1" fill="none" fill-rule="evenodd" transform="translate(-888.000000, -153.000000)">
        <g id="Headings" transform="translate(64.000000, 77.000000)"></g>
        <g id="icon_tool_account_rub__xxl__white" transform="translate(888.000000, 153.000000)">
            <g id="ungroup">
                <rect id="Rectangle-path" x="0" y="0" width="48" height="48"></rect>
                <path d="M37.5,46 L9.5,46 C7.6,46 6,44.4 6,42.5 L6,5.5 C6,3.6 7.6,2 9.5,2 L30.7,2 L41,12.3 L41,42.5 C41,44.4 39.4,46 37.5,46 L37.5,46 Z M9.5,3 C8.1,3 7,4.1 7,5.5 L7,42.5 C7,43.9 8.1,45 9.5,45 L37.5,45 C38.9,45 40,43.9 40,42.5 L40,12.7 L30.3,3 L9.5,3 L9.5,3 Z" id="Shape" fill="#0B1F35"></path>
                <path d="M18,36 L21,36 L21,33 L28,33 L28,30 L21,30 L21,28 L25.5,28 C29.8,28 32.3,25 32.3,21 C32.3,17 29.9,14 25.6,14 L18,14 L18,25 L15.1,25 L15.1,28 L18,28 L18,30 L15.1,30 L15.1,33 L18,33 L18,36 L18,36 Z M21,17 L24.6,17 C27.6,17 29,18.6 29,21 C29,23.5 27.6,25 24.6,25 L21,25 L21,17 L21,17 Z" id="Shape" fill="#0B1F35" opacity="0.3"></path>
            </g>
        </g>
    </g>
</svg>
